X: 36729
T: Sheep In The Boat, The
R: jig
M: 6/8
K: Ddorian
|:ADE A2G|~E3 cde|dcA AGE|GED DDD|
ADE A2G|EDE c2 e|dcA AGE|GED D3:|
A2 d dcd|ede c2 e|dcA AGE|GED AGE|
Add dcd|ede cde|dcA AGE|GED DD/D/D|
A2 d dcd|ede c2 e|dcA AGE|GED E2D|
ADE A2G|~E3 cde|dcA AGE|GED D3||

